picto/residual-waste.svg

<svg class="color-immutable" width="24" height="24" viewBox="0 0 24 24" fill="none" xmlns="http://www.w3.org/2000/svg"><g clip-path="url(#a)"><path d="M0 22.5v-21C0 .675.675 0 1.5 0h21c.825 0 1.5.675 1.5 1.5v21c0 .825-.675 1.5-1.5 1.5h-21C.675 24 0 23.325 0 22.5Z" fill="#2D327D"/><path d="M6.136 15.223a1.56 1.56 0 0 0-.926-.506A1.398 1.398 0 0 0 3 13.893a1.62 1.62 0 0 1 .329-.644c.457-.562.814-.678 1.057-.796-.379-.214-.919-.336-1.227-.303-.106.011-.041-.219-.021-.276.032-.09.08-.23.287-.202.289.04 1.078.514 1.185.603.158-.226.286-.592.95-1.014.135-.086.27-.15.405-.193-.362.518-.355 1.211.06 1.678.21.236.491.375.789.416a1.725 1.725 0 0 0 1.99 1.822c-.017.22-.061.398-.134.51-.28.429-.433.394-.749.665-.306.282-.288.438-.747.667-.162.081-.437.094-.768.054a1.564 1.564 0 0 0-.27-1.657ZM7.637 6.499 9.47 11.56l3.98-.816-.349-5.365-5.464 1.12ZM14.59 14.364h-1.203l-2.194 3.8a.754.754 0 0 0 .281 1.028l2.953 1.705a.754.754 0 0 0 1.031-.271l1.824-3.159-2.27-.17-.422-2.933Z" fill="#fff"/><path d="M20.905 7.75 19.6 6.996a.188.188 0 0 0-.257.068l-.194.335a.188.188 0 0 0 .058.25l.01.006s-1.276 1.809-1.777 2.678c-.502.869-2.396 1.162-3.27 2.675l-.141.244h1.524l.433 3.004 1.914.144.536-.929c.873-1.513.18-3.3.682-4.169l-.002-.001c.502-.869 1.406-2.89 1.406-2.89l.015.007c.088.042.194.01.243-.075l.194-.337a.185.185 0 0 0-.069-.256ZM12.721 3.618l-.358.115L11.992 3 7.46 4.904l.056.385-.398.127.113.617 5.757-1.848-.267-.567Z" fill="#fff"/></g><defs><clipPath id="a"><path fill="#fff" d="M0 0h24v24H0z"/></clipPath></defs></svg>

<svg class="color-immutable" width="24" height="24" viewBox="0 0 24 24" fill="none" xmlns="http://www.w3.org/2000/svg"><path d="M0 22.5V1.5C0 0.675 0.675 0 1.5 0H22.5C23.325 0 24 0.675 24 1.5V22.5C24 23.325 23.325 24 22.5 24H1.5C0.675 24 0 23.325 0 22.5Z" fill="#2D327D"/><path d="M6.136 15.223C5.885 14.941 5.555 14.771 5.21 14.717C5.161 14.487 5.055 14.267 4.887 14.079C4.398 13.53 3.576 13.458 3 13.893C3.053 13.672 3.161 13.456 3.329 13.249C3.786 12.687 4.143 12.571 4.386 12.453C4.007 12.239 3.467 12.117 3.159 12.15C3.053 12.161 3.118 11.931 3.138 11.874C3.17 11.784 3.218 11.644 3.425 11.672C3.714 11.712 4.503 12.186 4.61 12.275C4.768 12.049 4.896 11.683 5.56 11.261C5.695 11.175 5.83 11.111 5.965 11.068C5.603 11.586 5.61 12.279 6.025 12.746C6.235 12.982 6.516 13.121 6.814 13.162C6.784 13.609 6.926 14.067 7.247 14.427C7.652 14.882 8.244 15.071 8.804 14.984C8.787 15.204 8.743 15.382 8.67 15.494C8.39 15.923 8.237 15.888 7.921 16.159C7.615 16.441 7.633 16.597 7.174 16.826C7.012 16.907 6.737 16.92 6.406 16.88C6.637 16.339 6.553 15.691 6.136 15.223Z" fill="white"/><path d="M7.63702 6.499L9.47002 11.56L13.45 10.744L13.101 5.379L7.63702 6.499Z" fill="white"/><path d="M14.59 14.364H13.387C12.647 15.646 11.706 17.276 11.193 18.164C10.986 18.523 11.112 18.983 11.474 19.192L14.427 20.897C14.789 21.106 15.251 20.985 15.458 20.626L17.282 17.467L15.012 17.297L14.59 14.364Z" fill="white"/><path d="M20.905 7.75L19.6 6.996C19.51 6.944 19.395 6.974 19.343 7.064L19.149 7.399C19.1 7.485 19.125 7.594 19.207 7.649L19.217 7.655C19.217 7.655 17.941 9.464 17.44 10.333C16.938 11.202 15.044 11.495 14.17 13.008C14.127 13.083 14.08 13.164 14.029 13.252H15.553L15.986 16.256L17.9 16.4L18.436 15.471C19.309 13.958 18.616 12.171 19.118 11.302L19.116 11.301C19.618 10.432 20.522 8.411 20.522 8.411L20.537 8.418C20.625 8.46 20.731 8.428 20.78 8.343L20.974 8.006C21.027 7.917 20.996 7.802 20.905 7.75Z" fill="white"/><path d="M12.721 3.618L12.363 3.733L11.992 3L7.45998 4.904L7.51598 5.289L7.11798 5.416L7.23098 6.033L12.988 4.185L12.721 3.618Z" fill="white"/></svg>
